X: 19043
T: Inverness County
R: reel
M: 4/4
K: Gmajor
DGBG AGED|DGGB degd|e2dB AGE a|gedB ABGE|
DGBG AGED|DGGB degd|e2dB AGE a|gedB ABG2||
gdeg edB2|Bdde g2ba|gdeg edBd|gedB A4|
gdeg edB2|dBde g2ba|gbeg d2Bd|gedB AEGE||

